X:1
T:Kilmaley Reel
M:4/4
L:1/8
K:G
|G2DG EGDE| G2BG AGEG| A2EA FAEA| ABcd edBA|"
G2DG EGDE| G2BG AGEG| cBcd efge|[1dBAB GDEF]:|[2dBAB GABd]|
g2 dg egde| g2bg ageg| a2ea faea| a2bg agef|
g2dg egde|g2bg aged|cBcd efge|[1dBAB GABd]:|[2dBAB (G2G2)]||
